packages/ndla-icons/svg/common/HelpCircle.svg

<svg style="width:24px;height:24px" viewBox="0 0 24 24" xmlns="http://www.w3.org/2000/svg" data-license="Apache License 2.0" data-source="Material Design">
    <path d="M15.07,11.25L14.17,12.17C13.45,12.89 13,13.5 13,15H11V14.5C11,13.39 11.45,12.39 12.17,11.67L13.41,10.41C13.78,10.05 14,9.55 14,9C14,7.89 13.1,7 12,7A2,2 0 0,0 10,9H8A4,4 0 0,1 12,5A4,4 0 0,1 16,9C16,9.88 15.64,10.67 15.07,11.25M13,19H11V17H13M12,2A10,10 0 0,0 2,12A10,10 0 0,0 12,22A10,10 0 0,0 22,12C22,6.47 17.5,2 12,2Z" />
</svg>

<svg xmlns="http://www.w3.org/2000/svg" data-license="Apache License 2.0" data-source="Material Design" style="width:24px;height:24px" viewBox="0 0 24 24">
  <path d="m15 11.3-.8.9c-.8.7-1.2 1.3-1.2 2.8h-2v-.5a4 4 0 0 1 1.2-2.8l1.2-1.3c.4-.3.6-.8.6-1.4a2 2 0 0 0-2-2 2 2 0 0 0-2 2H8a4 4 0 0 1 4-4 4 4 0 0 1 4 4c0 .9-.4 1.7-1 2.3M13 19h-2v-2h2M12 2A10 10 0 0 0 2 12a10 10 0 0 0 10 10 10 10 0 0 0 10-10A10 10 0 0 0 12 2Z"/>
</svg>
